packages/foundations/assets/icons/functional/images/security/lock_open_20_filled.svg

<svg width="20" height="20" viewBox="0 0 20 20" fill="none" xmlns="http://www.w3.org/2000/svg">
<g clip-path="url(#clip0_2214_5832)">
<path fill-rule="evenodd" clip-rule="evenodd" d="M10 2C11.9366 2 13.5848 3.38575 13.9327 5.26953C14.0331 5.81263 13.6741 6.33422 13.131 6.43452C12.6267 6.52767 12.1409 6.22481 11.9938 5.74624L11.966 5.63278C11.7925 4.69329 10.9679 4 10 4C8.94597 4 8.08244 4.81562 8.00612 5.85015L8.00064 5.99936V8.01717H14C15.1046 8.01717 16 8.9126 16 10.0172V16C16 17.1046 15.1046 18 14 18H6C4.89543 18 4 17.1046 4 16V10.0172C4 8.9126 4.89543 8.01717 6 8.01717L6.00064 5.99936C6.00064 3.79058 7.79121 2 10 2ZM10 11C9.48716 11 9.06449 11.386 9.00673 11.8834L9 12V13.9951L9.00673 14.1117C9.06449 14.6091 9.48716 14.9951 10 14.9951C10.5128 14.9951 10.9355 14.6091 10.9933 14.1117L11 13.9951V12L10.9933 11.8834C10.9355 11.386 10.5128 11 10 11Z" fill="#1A1C1F"/>
</g>
<defs>
<clipPath id="clip0_2214_5832">
<rect width="20" height="20" fill="white"/>
</clipPath>
</defs>
</svg>

<svg xmlns="http://www.w3.org/2000/svg" width="20" height="20" fill="none"><g clip-path="url(#a)"><path fill="#1A1C1F" fill-rule="evenodd" d="M10 2a4 4 0 0 1 3.933 3.27 1 1 0 0 1-1.94.476l-.027-.113a2 2 0 0 0-3.96.217L8.001 6v2.017H14a2 2 0 0 1 2 2V16a2 2 0 0 1-2 2H6a2 2 0 0 1-2-2v-5.983a2 2 0 0 1 2-2V6A4 4 0 0 1 10 2m0 9a1 1 0 0 0-.993.883L9 12v1.995l.007.117a1 1 0 0 0 1.986 0l.007-.117V12l-.007-.117A1 1 0 0 0 10 11" clip-rule="evenodd"/></g><defs><clipPath id="a"><path fill="#fff" d="M0 0h20v20H0z"/></clipPath></defs></svg>
